public/svg_assets/socials_icons/discord.svg

<svg width="66" height="66" viewBox="0 0 66 66" fill="none" xmlns="http://www.w3.org/2000/svg">
<path d="M33 66C51.2254 66 66 51.2254 66 33C66 14.7746 51.2254 0 33 0C14.7746 0 0 14.7746 0 33C0 51.2254 14.7746 66 33 66Z" fill="#A1A1A1"/>
<path d="M47.5991 20.5201C44.8613 19.3405 41.9537 18.4796 38.9188 18C38.536 18.6197 38.1133 19.4607 37.8174 20.1202C34.5896 19.6798 31.3847 19.6798 28.2014 20.1202C27.9055 19.4607 27.4569 18.6197 27.0999 18C24.0439 18.4803 21.1365 19.3389 18.4179 20.5201C12.9211 28.1601 11.4355 35.6199 12.1781 42.9799C15.8288 45.4799 19.3519 46.9999 22.8133 48C23.6634 46.92 24.4267 45.7599 25.0843 44.54C23.8325 44.0996 22.6435 43.5596 21.4977 42.92C21.7936 42.7208 22.0895 42.4995 22.369 42.2804C29.2878 45.2603 36.7815 45.2603 43.6154 42.2804C43.9114 42.5017 44.1908 42.7208 44.4867 42.92C43.343 43.5596 42.1524 44.0996 40.9004 44.54C41.558 45.7594 42.3212 46.92 43.1714 48C46.6306 46.9997 50.1749 45.4799 53.8063 42.9799C54.7199 34.46 52.3597 27.0602 47.6069 20.5201H47.5991ZM26.0344 38.4399C23.9537 38.4399 22.2567 36.6605 22.2567 34.4799C22.2567 32.3 23.9124 30.52 26.0344 30.52C28.134 30.52 29.8544 32.2993 29.8119 34.4799C29.8119 36.6599 28.1351 38.4399 26.0344 38.4399ZM39.9798 38.4399C37.9014 38.4399 36.2002 36.6605 36.2002 34.4799C36.2002 32.3 37.8582 30.52 39.9798 30.52C42.0793 30.52 43.8 32.2993 43.7575 34.4799C43.7575 36.6599 42.1019 38.4399 39.9798 38.4399Z" fill="white"/>
</svg>

<svg width="66" height="66" fill="none" xmlns="http://www.w3.org/2000/svg">
    <path d="M33 66c18.225 0 33-14.775 33-33S51.225 0 33 0 0 14.775 0 33s14.775 33 33 33Z" fill="#A1A1A1"/>
    <path d="M47.6 20.52A36.206 36.206 0 0 0 38.918 18a19.95 19.95 0 0 0-1.102 2.12 35.158 35.158 0 0 0-9.616 0c-.296-.66-.744-1.5-1.101-2.12a35.65 35.65 0 0 0-8.682 2.52c-5.497 7.64-6.982 15.1-6.24 22.46 3.65 2.5 7.174 4.02 10.635 5.02.85-1.08 1.614-2.24 2.271-3.46a22.97 22.97 0 0 1-3.586-1.62c.296-.2.591-.42.871-.64 6.919 2.98 14.413 2.98 21.246 0 .296.222.576.44.872.64a22.87 22.87 0 0 1-3.587 1.62c.658 1.22 1.421 2.38 2.271 3.46 3.46-1 7.004-2.52 10.635-5.02.914-8.52-1.446-15.92-6.2-22.46H47.6ZM26.033 38.44c-2.08 0-3.777-1.78-3.777-3.96 0-2.18 1.655-3.96 3.777-3.96 2.1 0 3.82 1.78 3.778 3.96 0 2.18-1.677 3.96-3.778 3.96Zm13.946 0c-2.079 0-3.78-1.78-3.78-3.96 0-2.18 1.658-3.96 3.78-3.96 2.1 0 3.82 1.78 3.778 3.96 0 2.18-1.656 3.96-3.778 3.96Z" fill="#fff"/>
</svg>
